X: 20155
T: Joanie's
R: jig
M: 6/8
K: Dmajor
|:DEF E2 G|FAd f2 a|gec ABc|d>AG F2 E
DEF EFG|FAd fga|gec A>Bc|d3 d3:|
|:f3 g3|afd def|gec A2 c|dAG F2 d|
fef gfg|afd d2 f|gec A>Bc|dAF D2 z:|

